X: 25
T:Westphalia Waltz
M:3/4
L:1/4
C:
R:Key of D
K:D
||A,|D2E|F2B|A3|A2A,|D2E|F2G|E3|E2A,|C2E|G2d|!c3|c2B|A3|BAG|F3|F2A,|D2E|
F2B
|
A3|A2A,|D2E|!F2G|E3|E2A,|C2E|G2d|c3|c2B|A3|GFE|D3|D3|!ddd|ccc|Bcd|F3|FED
|FE
F
|G3|G3|B3|B3|Bcd|!
c2B|A2A|BAG|F3|F3|ddd|ccc|Bcd|F3|FED|!FEF|G3|G3|B3|B3|Bcd|c2B|A3|GFE|D3|
|
